X:1
T:title
M:4/4
Q:120
L:1/8
R:Reel
K:C
 ^e'2 ^B2 _b ^ga' ^b' | f2a3 ^a2 ^F |  ^c2 ^d4E2 |  _a _e' ^f' ^a'3 _bg |  ^a3 ^g3 ^f'g |  _f'4 ^G4 |  _F2 _d _a2 _a2 _B |  ^b2A _g'2 _e ^E _B | 